X: 763
P: Longways for as many as will
M: 9/4
L: 1/4
K: Gm
|:\
|:\
f2f fgf =e2d | cAB A2G ^F>ED |
g2g g>ag ^f2d | dgg g2a bag |\
f2f f>gf =e2d | cAB A2G ^F>ED | BAB cBc d2D | DGG G2A BAG :|

